file-link-outline.svg

<svg fill="currentColor" viewBox="0 0 24 24"><path d="M14 2H6a2 2 0 0 0-2 2v16c0 1.11.89 2 2 2h12c1.11 0 2-.89 2-2V8zm4 18H6V4h7v5h5zm-7-1h-.25C9.45 19 7 18.22 7 15.25s2.45-3.75 3.75-3.75H11V13h-.25c-.37 0-2.25.13-2.25 2.25 0 2.19 2 2.25 2.25 2.25H11zm3-3h-4v-1.5h4zm-1-4.5h.25c1.3 0 3.75.78 3.75 3.75S14.55 19 13.25 19H13v-1.5h.25c.37 0 2.25-.13 2.25-2.25 0-2.19-2-2.25-2.25-2.25H13z"/></svg>

<svg  viewBox="0 0 24 24" fill="currentColor"><path  d="M14 2H6C4.89 2 4 2.9 4 4V20C4 21.11 4.89 22 6 22H18C19.11 22 20 21.11 20 20V8L14 2M18 20H6V4H13V9H18V20M11 19H10.75C9.45 19 7 18.22 7 15.25S9.45 11.5 10.75 11.5H11V13H10.75C10.38 13 8.5 13.13 8.5 15.25C8.5 17.44 10.5 17.5 10.75 17.5H11V19M14 16H10V14.5H14V16M13 11.5H13.25C14.55 11.5 17 12.28 17 15.25S14.55 19 13.25 19H13V17.5H13.25C13.62 17.5 15.5 17.37 15.5 15.25C15.5 13.06 13.5 13 13.25 13H13V11.5Z"/></svg>
